X:46
T:Budd's Reel
R:reel
C:Paul S. Cranford
O:Cape Breton Island
S:http://www.cranfordpub.com
D:currently unrecorded
B:currently unpublished in book form
Z:psc, (re-formatted,updated 9/17/04)
N:
H:                                                        copyrights Cranford Publications, SOCAN
Q:333
M:C|
K:D
A|d2 Ad BAGB|AF (F/E/F) GFEA|d2 Ad BAGB|ABcA defg|
af (f/e/f) edcA|BGAd AGFA|BG (G/F/G) AGFd|cdec d2 z:|
|:e|fded gecA|BGAG FGAe|f3 a gecA|1BGcA defg|
af (f/e/f) edcA|BGAd AGFA|BG (G/F/G) AGFd|cdec d2 z:|
[2BGcA dcde|fgaf bgec|dced AGFd|~B3 d AGFd|cdec d2 z|]
